assets/rupee-coin.svg

<svg xmlns="http://www.w3.org/2000/svg" fill="none" viewBox="0 0 28 28">
  <path fill="#2A2238" fill-rule="evenodd" d="M14 26.25c-3.2489 0-6.36474-1.2906-8.66206-3.5879C3.04062 20.3647 1.75 17.2489 1.75 14c0-3.2489 1.29062-6.36474 3.58794-8.66206S10.7511 1.75 14 1.75s6.3647 1.29062 8.6621 3.58794C24.9594 7.63526 26.25 10.7511 26.25 14s-1.2906 6.3647-3.5879 8.6621C20.3647 24.9594 17.2489 26.25 14 26.25ZM14 28c3.713 0 7.274-1.475 9.8995-4.1005C26.525 21.274 28 17.713 28 14s-1.475-7.27398-4.1005-9.89949C21.274 1.475 17.713 0 14 0S6.72602 1.475 4.1005 4.10051C1.475 6.72602 0 10.287 0 14s1.475 7.274 4.1005 9.8995C6.72602 26.525 10.287 28 14 28Zm3.8636-21h-6.9865c-.3866 0-.7.3134-.7.7v.3226c0 .42197.3708.75111.7923.72978.4939-.025 1.1377-.02817 1.6868.0658 1.0626.18182 1.4404.71843 1.7709 1.27272h-3.55c-.3866 0-.7.3134-.7.7v.2364c0 .3866.3134.7.7.7h3.55c-.4874 1.1288-.9799 1.6369-3.7085 1.6445-.3931.0011-.7186.3155-.7186.7086V15l4.7484 5.7459c.1329.1609.3308.2541.5396.2541h.8737c.5863 0 .9128-.6777.5474-1.1362L12.8333 15c2.3801-.3716 3.3823-1.3119 3.8959-3.4545H17.8c.3866 0 .7-.3134.7-.7v-.0546c0-.3866-.3134-.7-.7-.7h-1.0708c-.0041-.0395-.0078-.0779-.0114-.11522-.0515-.53366-.0836-.86605-.874-1.70295h2.0198c.3515 0 .6364-.28491.6364-.63637C18.5 7.28491 18.2151 7 17.8636 7ZM7.1941 20.8059C8.99913 22.6109 11.4473 23.625 14 23.625c2.5527 0 5.0009-1.0141 6.8059-2.8191 1.805-1.805 2.8191-4.2532 2.8191-6.8059 0-2.5527-1.0141-5.00087-2.8191-6.8059C19.0009 5.38906 16.5527 4.375 14 4.375c-2.5527 0-5.00087 1.01406-6.8059 2.8191C5.38906 8.99913 4.375 11.4473 4.375 14c0 2.5527 1.01406 5.0009 2.8191 6.8059Zm10.8241 2.8948c-1.2739.5277-2.6393.7993-4.0182.7993-2.7848 0-5.45549-1.1062-7.42462-3.0754C4.60625 19.4555 3.5 16.7848 3.5 14c0-2.7848 1.10625-5.45549 3.07538-7.42462C8.54451 4.60625 11.2152 3.5 14 3.5c1.3789 0 2.7443.27159 4.0182.79926 1.2739.52768 2.4314 1.3011 3.4064 2.27612.975.97501 1.7485 2.13252 2.2761 3.40644C24.2284 11.2557 24.5 12.6211 24.5 14c0 1.3789-.2716 2.7443-.7993 4.0182-.5276 1.2739-1.3011 2.4314-2.2761 3.4064-.975.975-2.1325 1.7485-3.4064 2.2761Z" clip-rule="evenodd"/>
</svg>

<svg width="28" height="28" viewBox="0 0 28 28" fill="none" xmlns="http://www.w3.org/2000/svg">
<path fill-rule="evenodd" clip-rule="evenodd" d="M14 26.25C10.7511 26.25 7.63526 24.9594 5.33794 22.6621C3.04062 20.3647 1.75 17.2489 1.75 14C1.75 10.7511 3.04062 7.63526 5.33794 5.33794C7.63526 3.04062 10.7511 1.75 14 1.75C17.2489 1.75 20.3647 3.04062 22.6621 5.33794C24.9594 7.63526 26.25 10.7511 26.25 14C26.25 17.2489 24.9594 20.3647 22.6621 22.6621C20.3647 24.9594 17.2489 26.25 14 26.25ZM14 28C17.713 28 21.274 26.525 23.8995 23.8995C26.525 21.274 28 17.713 28 14C28 10.287 26.525 6.72602 23.8995 4.10051C21.274 1.475 17.713 0 14 0C10.287 0 6.72602 1.475 4.1005 4.10051C1.475 6.72602 0 10.287 0 14C0 17.713 1.475 21.274 4.1005 23.8995C6.72602 26.525 10.287 28 14 28ZM17.8636 7H10.8771C10.4905 7 10.1771 7.3134 10.1771 7.7V8.0226C10.1771 8.44457 10.5479 8.77371 10.9694 8.75238C11.4633 8.72738 12.1071 8.72421 12.6562 8.81818C13.7188 9 14.0966 9.53661 14.4271 10.0909H10.8771C10.4905 10.0909 10.1771 10.4043 10.1771 10.7909V11.0273C10.1771 11.4139 10.4905 11.7273 10.8771 11.7273H14.4271C13.9397 12.8561 13.4472 13.3642 10.7186 13.3718C10.3255 13.3729 10 13.6873 10 14.0804V15L14.7484 20.7459C14.8813 20.9068 15.0792 21 15.288 21H16.1617C16.748 21 17.0745 20.3223 16.7091 19.8638L12.8333 15C15.2134 14.6284 16.2156 13.6881 16.7292 11.5455H17.8C18.1866 11.5455 18.5 11.2321 18.5 10.8455V10.7909C18.5 10.4043 18.1866 10.0909 17.8 10.0909H16.7292C16.7251 10.0514 16.7214 10.013 16.7178 9.97568C16.6663 9.44202 16.6342 9.10963 15.8438 8.27273H17.8636C18.2151 8.27273 18.5 7.98782 18.5 7.63636C18.5 7.28491 18.2151 7 17.8636 7ZM7.1941 20.8059C8.99913 22.6109 11.4473 23.625 14 23.625C16.5527 23.625 19.0009 22.6109 20.8059 20.8059C22.6109 19.0009 23.625 16.5527 23.625 14C23.625 11.4473 22.6109 8.99913 20.8059 7.1941C19.0009 5.38906 16.5527 4.375 14 4.375C11.4473 4.375 8.99913 5.38906 7.1941 7.1941C5.38906 8.99913 4.375 11.4473 4.375 14C4.375 16.5527 5.38906 19.0009 7.1941 20.8059ZM18.0182 23.7007C16.7443 24.2284 15.3789 24.5 14 24.5C11.2152 24.5 8.54451 23.3938 6.57538 21.4246C4.60625 19.4555 3.5 16.7848 3.5 14C3.5 11.2152 4.60625 8.54451 6.57538 6.57538C8.54451 4.60625 11.2152 3.5 14 3.5C15.3789 3.5 16.7443 3.77159 18.0182 4.29926C19.2921 4.82694 20.4496 5.60036 21.4246 6.57538C22.3996 7.55039 23.1731 8.7079 23.7007 9.98182C24.2284 11.2557 24.5 12.6211 24.5 14C24.5 15.3789 24.2284 16.7443 23.7007 18.0182C23.1731 19.2921 22.3996 20.4496 21.4246 21.4246C20.4496 22.3996 19.2921 23.1731 18.0182 23.7007Z" fill="#2A2238"/>
</svg>
